X:13167
T:Piper's Broken Finger
R:reel
C:Cathal McConnell
S:
H:
N:
D:Milltown 1999 
Z:Adrian Scahill 
M:4/4
L:1/8
K:G
(3Bcd|egdB G2(3Bcd|e2ed egg2|egdB G3a|b3g aged|\
egdB G2(3Bcd|e2ed egg2|egdB G3z|b3g ageg||\
b3g a3a|{b}agab ageg|b3g a3b|aged BA (3Bcd|\
b2d'2 a4|{b}agab ageg|b3g a3b|aged BA (3Bcd||
